icons/glyphs/glyph-office-round.svg

<?xml version="1.0" encoding="UTF-8" standalone="no"?><svg height="22" viewBox="0 0 5.8208332 5.8208335" width="22" xmlns="http://www.w3.org/2000/svg"><sodipodi:namedview/><metadata><rdf:RDF><cc:Work><dc:format>image/svg+xml</dc:format><dc:type/><dc:title/></cc:Work></rdf:RDF></metadata><path d="m2.9104167 0a2.9102288 2.9102288 0 0 0 -2.91041669 2.9104166 2.9102288 2.9102288 0 0 0 2.91041669 2.9104167 2.9102288 2.9102288 0 0 0 2.9104166-2.9104167 2.9102288 2.9102288 0 0 0 -2.9104166-2.9104166zm1.8054558 1.2502646a.27759566.27759566 0 0 1  .2559085.1810878.27759566.27759566 0 0 1 -.1637378.3567538l-1.0512852.3871159-.6831454.6050716-.5828425-.2239198.9770064-.8647756 1.1472508-.4239839a.27759566.27759566 0 0 1  .074279-.016266.27759566.27759566 0 0 1  .026566-.00109zm.3497056.6066983c.069301-.0015.1371403.02178.190847.065604.1256981.1020769.1443242.2872113.041205.4120561l-1.256228 1.536535-2.4631191-.9444759-.76230366.5860955c-.12776633.0989018-.31165464.0751479-.4098873-.0531335-.09844804-.128305-.07364348-.3122812.05530227-.4098874l1.02038079-.7850752 2.375286.911945.987308-1.2112278c.0540764-.0671524.1350061-.1067466.221209-.1084358zm-3.2075308 1.2589395.5844689.2239201-1.3109887 1.1613473a.27759566.27759566 0 0 1 -.39145321-.024939.27759566.27759566 0 0 1  .0227714-.390911z" fill="#d0d0d0"/></svg>

<?xml version="1.0" encoding="UTF-8" standalone="no"?>
<!-- Created with Inkscape (http://www.inkscape.org/) -->

<svg
   xmlns:dc="http://purl.org/dc/elements/1.1/"
   xmlns:cc="http://creativecommons.org/ns#"
   xmlns:rdf="http://www.w3.org/1999/02/22-rdf-syntax-ns#"
   xmlns:svg="http://www.w3.org/2000/svg"
   xmlns="http://www.w3.org/2000/svg"
   xmlns:sodipodi="http://sodipodi.sourceforge.net/DTD/sodipodi-0.dtd"
   xmlns:inkscape="http://www.inkscape.org/namespaces/inkscape"
   width="22"
   height="22"
   viewBox="0 0 5.8208332 5.8208335"
   version="1.1"
   id="svg8"
   inkscape:version="0.92+devel 15700 custom"
   sodipodi:docname="glyph-office-round.svg">
  <defs
     id="defs2" />
  <sodipodi:namedview
     id="base"
     pagecolor="#002466"
     bordercolor="#ffffff"
     borderopacity="0.29019608"
     inkscape:pageopacity="1"
     inkscape:pageshadow="2"
     inkscape:zoom="18.681818"
     inkscape:cx="24.532679"
     inkscape:cy="6.8154246"
     inkscape:document-units="px"
     inkscape:current-layer="svg8"
     inkscape:document-rotation="0"
     showgrid="false"
     units="px"
     inkscape:showpageshadow="false"
     borderlayer="true"
     inkscape:window-width="1920"
     inkscape:window-height="1054"
     inkscape:window-x="0"
     inkscape:window-y="0"
     inkscape:window-maximized="1"
     inkscape:snap-page="true" />
  <metadata
     id="metadata5">
    <rdf:RDF>
      <cc:Work
         rdf:about="">
        <dc:format>image/svg+xml</dc:format>
        <dc:type
           rdf:resource="http://purl.org/dc/dcmitype/StillImage" />
        <dc:title></dc:title>
      </cc:Work>
    </rdf:RDF>
  </metadata>
  <path
     style="fill:#d0d0d0;stroke:none;stroke-width:0.52916664;stroke-linejoin:round"
     d="M 2.9104167,0 A 2.9102288,2.9102288 0 0 0 1.4999998e-8,2.9104166 2.9102288,2.9102288 0 0 0 2.9104167,5.8208333 2.9102288,2.9102288 0 0 0 5.8208333,2.9104166 2.9102288,2.9102288 0 0 0 2.9104167,0 Z M 4.7158725,1.2502646 A 0.27759566,0.27759566 0 0 1 4.971781,1.4313524 0.27759566,0.27759566 0 0 1 4.8080432,1.7881062 L 3.756758,2.1752221 3.0736126,2.7802937 2.4907701,2.5563739 3.4677765,1.6915983 4.6150273,1.2676144 a 0.27759566,0.27759566 0 0 1 0.074279,-0.016266 0.27759566,0.27759566 0 0 1 0.026566,-0.00109 z m 0.3497056,0.6066983 c 0.069301,-0.0015 0.1371403,0.02178 0.190847,0.065604 0.1256981,0.1020769 0.1443242,0.2872113 0.041205,0.4120561 L 4.0414021,3.871158 1.578283,2.9266821 0.81597934,3.5127776 C 0.68821301,3.6116794 0.5043247,3.5879255 0.40609204,3.4596441 0.307644,3.3313391 0.33244856,3.1473629 0.46139431,3.0497567 L 1.4817751,2.2646815 3.8570611,3.1766265 4.8443691,1.9653987 C 4.8984455,1.8982463 4.9793752,1.8586521 5.0655781,1.8569629 Z M 1.8580473,3.1159024 2.4425162,3.3398225 1.1315275,4.5011698 a 0.27759566,0.27759566 0 0 1 -0.39145321,-0.024939 0.27759566,0.27759566 0 0 1 0.0227714,-0.390911 z"
     id="path4268"
     inkscape:connector-curvature="0" />
</svg>
